X:8
T:GB/7b/8 The Undaunted Female 
%%VWML:GB-7b-8-0
F:http://www.vwml.org/record/GB/7b/8
C:Transcribed by Simon Furey and Lewis Jones
L:1/4
M:4/4
I:linebreak $
K:D
"^Variant 1" A | D D E F | G2 A A | G F D D | D3 A | A d B B | c B A A | E E F G | A3 A |$
A d B B | c A B G | E E d B | A3 A | D D E F | G2 A A | G F D D | D3 |]$"^Vaiant 2" A | D D E F | G2 A A | E F D D | D3 A | A d B B | c B A A | E E F G | A3 A |$ A d B B | c A B G | E E d B |
A3 A | D D E F | G2 A A | G F D D | D3 |]

